symbols/web/king_bed/materialsymbolsoutlined/king_bed_wght100grad200_48px.svg

<svg xmlns="http://www.w3.org/2000/svg" height="48" width="48"><path d="M9.05 36.45H8.1l-.6-4.05H5.8v-6.7q0-1.25.75-2.25t2-1.15h1.4v-4.8q0-1.4.95-2.375.95-.975 2.4-.975h21.45q1.35 0 2.35.975t1 2.375v4.8h1.4q1.15.15 1.925 1.125.775.975.775 2.175v6.8h-1.6l-.75 4.05h-.9l-.65-4.05H9.75ZM24.9 22.3h11.45v-4.8q0-.7-.475-1.15-.475-.45-1.125-.45H24.9Zm-13.2 0h11.45v-6.4H13.3q-.7 0-1.15.45-.45.45-.45 1.15Zm-4.15 8.35h32.9v-5q0-.65-.45-1.125t-1.15-.475H9.15q-.7 0-1.15.475-.45.475-.45 1.125Zm32.9 0H7.55 40.45Z"/></svg>

<svg xmlns="http://www.w3.org/2000/svg" height="48" width="48"><path d="M9.05 36.45H8.1L7.5 32.4H5.8V25.7Q5.8 24.45 6.55 23.45Q7.3 22.45 8.55 22.3H9.95V17.5Q9.95 16.1 10.9 15.125Q11.85 14.15 13.3 14.15H34.75Q36.1 14.15 37.1 15.125Q38.1 16.1 38.1 17.5V22.3H39.5Q40.65 22.45 41.425 23.425Q42.2 24.4 42.2 25.6V32.4H40.6L39.85 36.45H38.95L38.3 32.4H9.75ZM24.9 22.3H36.35V17.5Q36.35 16.8 35.875 16.35Q35.4 15.9 34.75 15.9H24.9ZM11.7 22.3H23.15V15.9H13.3Q12.6 15.9 12.15 16.35Q11.7 16.8 11.7 17.5ZM7.55 30.65H40.45V25.65Q40.45 25 40 24.525Q39.55 24.05 38.85 24.05H9.15Q8.45 24.05 8 24.525Q7.55 25 7.55 25.65ZM40.45 30.65H7.55Q7.55 30.65 8 30.65Q8.45 30.65 9.15 30.65H38.85Q39.55 30.65 40 30.65Q40.45 30.65 40.45 30.65Z"/></svg>
